X:129
T:Fete du Village THO4.129, Le
M:2/4
L:1/8
Z:vmp. Peter Dunk 2010/11.from a transcription by Fynn Titford-Mock 2007
B:Thompson's Compleat Collection of 200 Favourite Country Dances Volume IV.
Q:1/4=120
K:E
b2 {a/}gf/g/|ag f2|geee|f/e/d/c/ B2|\
{eg}b2 {a/}gf/g/|ag f2|ga ef/d/|e2E2:|
L:1/16
|:GBeB Acec|GBeB Acec|[e2B2G2]b2a2g2|(fefg) f4|\
GBeB Acec|GBeB Acec|e2g2f2b2|e4E4:|
